X:1
T:Title
%%score { ( 1 3 ) | ( 2 4 ) }
L:1/8
M:4/4
K:G
V:1 treble nm="Grand Piano"
V:3 treble 
V:2 bass 
V:4 bass 
V:1
 z4 z2[Q:1/4=100] D2 | [B,DG]2 [B,DG][B,DG] [DGB]2 [CDA][B,DG] | [CEA]2 [CEG][G,CE] [G,B,D]4 | %3
 GGGG BBAG | [DFA]6 [CD]2 | [B,DG]2 [B,DG][B,DG] [DGB]2 [CDA][B,DG] | [CEA]2 [CEG][G,CE] [G,B,D]4 | %7
 [B,DG][B,DG][B,DG][B,DG] [DGB][DGB] [DFB]>[CFA] |[M:3/4] [B,G]6 |[M:1/4] Bc |[M:4/4] d4 z4 | %11
 [DGB]6 Bc | d4 z4 | [DFA]6 [DFB]>[CFA] |[M:3/4] [B,G][B,DG] [DF][CE] [B,D]2 |[M:1/4] [DG]A | %16
[M:4/4] BBAG [DFA]2 Bc | d4 z4 |[M:3/4] G6 |] %19
V:2
 z4 z2 D,2 | G,,2 G,,G,, G,,2 G,,G,, | C,2 C,C, G,,4 | %3
 [G,B,D][G,B,D][G,B,D][G,B,D] [G,DG][G,DG][K:bass][F,D][E,^C] | D,6 D,2 | G,,2 G,,G,, G,2 G,G, | %6
 C,2 C,C, G,,4 | G,G,G,G, D,D, D,>D, |[M:3/4] G,,6 |[M:1/4] G,A, | %10
[M:4/4][K:treble] .[G,G]2 z2 z4[K:bass] | G,2 B,,D, G,2 G,A, | .[G,G]2 z2 z4[K:bass] | %13
 D,2 F,A, D,2 D,>D, |[M:3/4] G,,G,, [G,,G,][G,,G,] [G,,G,]2 |[M:1/4] [B,,G,][D,F,D] | %16
[M:4/4][K:treble] [G,D][G,DG][K:bass][G,CD][G,B,] D,2 G,A, | .[G,G]2 z2 z4[K:bass] | %18
[M:3/4] z2 C>C B,2 |] %19
V:3
 x8 | x8 | x8 | x8 | x8 | x8 | x8 | x8 |[M:3/4] x6 |[M:1/4] x2 |[M:4/4] z GGe dBAG | x8 | %12
 z GGe dBAG | x8 |[M:3/4] x6 |[M:1/4] x2 |[M:4/4] x8 | z GG[DGB] [CGA][B,G] [DFB]>[CFA] | %18
[M:3/4] B,2 E>E D2 |] %19
V:4
 x8 | x8 | x8 | x6[K:bass] x2 | x8 | x8 | x8 | x8 |[M:3/4] x6 |[M:1/4] x2 | %10
[M:4/4][K:treble] B,-[G,B,-][G,B,][G,CG] [G,B,G][G,DG][K:bass][G,CD][G,B,D] | x8 | %12
 B,-[G,B,-][G,B,][G,CG] [G,B,G][G,DG][K:bass][A,^CE][A,CE] | x8 |[M:3/4] x6 |[M:1/4] x2 | %16
[M:4/4][K:treble] x2[K:bass] x6 | B,-[G,B,-][G,B,]G, G,[K:bass]G, D,>D, |[M:3/4] G,,6 |] %19

